contributed-vectors/hocus.svg

<?xml version="1.0" encoding="UTF-8" standalone="no"?>
<svg
   xmlns:dc="http://purl.org/dc/elements/1.1/"
   xmlns:cc="http://creativecommons.org/ns#"
   xmlns:rdf="http://www.w3.org/1999/02/22-rdf-syntax-ns#"
   xmlns:svg="http://www.w3.org/2000/svg"
   xmlns="http://www.w3.org/2000/svg"
   xmlns:sodipodi="http://sodipodi.sourceforge.net/DTD/sodipodi-0.dtd"
   xmlns:inkscape="http://www.inkscape.org/namespaces/inkscape"
   viewBox="0 0 192 192"
   version="1.1"
   id="svg16"
   sodipodi:docname="hocus.svg"
   inkscape:version="0.92.4 (5da689c313, 2019-01-14)">
  <metadata
     id="metadata20">
    <rdf:RDF>
      <cc:Work
         rdf:about="">
        <dc:format>image/svg+xml</dc:format>
        <dc:type
           rdf:resource="http://purl.org/dc/dcmitype/StillImage" />
        <dc:title></dc:title>
      </cc:Work>
    </rdf:RDF>
  </metadata>
  <sodipodi:namedview
     pagecolor="#ffffff"
     bordercolor="#666666"
     borderopacity="1"
     objecttolerance="10"
     gridtolerance="10"
     guidetolerance="10"
     inkscape:pageopacity="0"
     inkscape:pageshadow="2"
     inkscape:window-width="1920"
     inkscape:window-height="1017"
     id="namedview18"
     showgrid="true"
     inkscape:zoom="3.4766083"
     inkscape:cx="43.773425"
     inkscape:cy="97.464535"
     inkscape:window-x="-8"
     inkscape:window-y="-8"
     inkscape:window-maximized="1"
     inkscape:current-layer="svg16"
     inkscape:snap-global="false">
    <inkscape:grid
       type="xygrid"
       id="grid827"
       spacingx="4"
       spacingy="4" />
  </sodipodi:namedview>
  <defs
     id="defs4">
    <style
       id="style2">.a{fill:none;stroke:#b1b5bd;stroke-linecap:round;stroke-linejoin:round;isolation:isolate;opacity:0.63;}</style>
  </defs>
  <path
     style="fill:#979797;stroke:none;stroke-width:3.08851838px;stroke-linecap:butt;stroke-linejoin:miter;stroke-opacity:1"
     d="m 101.05009,83.682153 14.43603,-27.761598 52.4139,29.982521 -46.41739,25.984854 z"
     id="path839"
     inkscape:connector-curvature="0" />
  <path
     style="fill:#83868c;stroke:none;stroke-width:3.08851838px;stroke-linecap:butt;stroke-linejoin:miter;stroke-opacity:1"
     d="M 36.375922,173.60733 131.92098,118.77282 V 84.57052 L 112.59891,92.565865 67.069895,119.217 67.514086,47.703122 33.311803,33.711276 Z"
     id="path837"
     inkscape:connector-curvature="0"
     sodipodi:nodetypes="cccccccc" />
  <path
     style="fill:#56595b;stroke:none;stroke-width:3.08851838px;stroke-linecap:butt;stroke-linejoin:miter;stroke-opacity:1"
     d="m 131.92098,84.57052 v 25.59131 l -63.296417,39.48187 0.666254,-31.75926 z"
     id="path856"
     inkscape:connector-curvature="0" />
  <path
     style="fill:#83868c;stroke:none;stroke-width:3.08851838px;stroke-linecap:butt;stroke-linejoin:miter;stroke-opacity:1"
     d="m 53.989927,73.099607 15.078795,5.696503 5.468716,5.924702 v 57.477848 l 7.381034,-7.32869 85.745638,-49.416289 h 4.39721 v 29.419449 l -118.071393,68.9713 -3.794213,-56.09375 z"
     id="path833"
     inkscape:connector-curvature="0" />
  <path
     style="fill:#56595b;stroke:none;stroke-width:3.08851838px;stroke-linecap:butt;stroke-linejoin:miter;stroke-opacity:1"
     d="M 47.683019,64.619268 68.402468,53.033349 116.1524,59.029852 116.04136,85.453681 86.169891,89.23447 Z"
     id="path835"
     inkscape:connector-curvature="0"
     sodipodi:nodetypes="cccccc" />
  <path
     style="fill:#ececec;stroke-width:3.08851838"
     d="M 31.03643,31.326087 54.63271,17.720595 172.11978,85.680982 74.621044,142.31465 v -6.44069 L 162.3872,85.202145 116.1524,59.029852 102.82683,67.025193 131.92098,84.57052 74.621044,117.66235 v -4.88604 L 99.193234,98.854711 87.94662,66.581008 34.644344,36.154297 Z"
     id="path831"
     inkscape:connector-curvature="0" />
  <path
     style="fill:#979797;stroke:none;stroke-width:3.08851838px;stroke-linecap:butt;stroke-linejoin:miter;stroke-opacity:1"
     d="M 58.990146,47.815634 72.966988,38.393037 95.738279,52.998063 85.582813,63.991094 Z"
     id="path864"
     inkscape:connector-curvature="0" />
  <path
     style="fill:#b1b5bd;stroke:none;stroke-width:3.08851838px;stroke-linecap:butt;stroke-linejoin:miter;stroke-opacity:1"
     d="M 31.03643,31.326087 V 170.46646 l 5.339492,3.14087 V 38.550079 L 86.001595,68.07422 V 86.29124 L 47.683019,64.619268 V 180.20315 l 6.306908,3.64128 V 73.099607 L 99.193234,98.854711 122.74973,85.034902 Z"
     id="path829"
     inkscape:connector-curvature="0" />
  <path
     style="fill:#ba6561;stroke:none;stroke-width:3.08851838px;stroke-linecap:butt;stroke-linejoin:miter;stroke-opacity:1"
     d="M 85.582813,63.991094 62.759189,42.005032 71.710641,21.432359 94.324889,18.60558 115.99686,29.598611 109.08695,50.328326 Z"
     id="path858"
     inkscape:connector-curvature="0" />
  <path
     style="opacity:0.25;fill:#000000;stroke:none;stroke-width:3.08851838px;stroke-linecap:butt;stroke-linejoin:miter;stroke-opacity:1"
     d="M 93.85376,43.104334 85.582813,63.991094 62.759189,42.005032 71.710641,21.432359 88.514286,27.71409 Z"
     id="path862"
     inkscape:connector-curvature="0" />
  <path
     style="fill:#ff837d;stroke:none;stroke-width:3.08851838px;stroke-linecap:butt;stroke-linejoin:miter;stroke-opacity:1"
     d="M 71.710641,21.432359 93.85376,43.104334 115.99686,29.598611 94.953063,8.0836772 Z"
     id="path860"
     inkscape:connector-curvature="0" />
</svg>

<svg xmlns="http://www.w3.org/2000/svg" id="svg16" version="1.1" viewBox="0 0 192 192"><defs id="defs4"><style id="style2">.a{fill:none;stroke:#b1b5bd;stroke-linecap:round;stroke-linejoin:round;isolation:isolate;opacity:.63}</style></defs><path id="path839" d="m101.05 83.682 14.436-27.761L167.9 85.903l-46.417 25.985z" style="fill:#979797;stroke:none;stroke-width:3.08851838px;stroke-linecap:butt;stroke-linejoin:miter;stroke-opacity:1"/><path id="path837" d="m36.376 173.607 95.545-54.834V84.57l-19.322 7.995-45.53 26.651.445-71.514-34.202-13.992Z" style="fill:#83868c;stroke:none;stroke-width:3.08851838px;stroke-linecap:butt;stroke-linejoin:miter;stroke-opacity:1"/><path id="path856" d="M131.921 84.57v25.592l-63.296 39.482.666-31.76z" style="fill:#56595b;stroke:none;stroke-width:3.08851838px;stroke-linecap:butt;stroke-linejoin:miter;stroke-opacity:1"/><path id="path833" d="m53.99 73.1 15.079 5.696 5.468 5.925v57.478l7.381-7.329 85.746-49.416h4.397v29.42L53.99 183.843l-3.794-56.093z" style="fill:#83868c;stroke:none;stroke-width:3.08851838px;stroke-linecap:butt;stroke-linejoin:miter;stroke-opacity:1"/><path id="path835" d="m47.683 64.62 20.72-11.587 47.75 5.997-.112 26.424-29.871 3.78Z" style="fill:#56595b;stroke:none;stroke-width:3.08851838px;stroke-linecap:butt;stroke-linejoin:miter;stroke-opacity:1"/><path id="path831" d="m31.036 31.326 23.597-13.605L172.12 85.68 74.62 142.315v-6.441l87.766-50.672-46.235-26.172-13.325 7.995 29.094 17.546-57.3 33.091v-4.886l24.572-13.921L87.947 66.58 34.644 36.154Z" style="fill:#ececec;stroke-width:3.08851838"/><path id="path864" d="m58.99 47.816 13.977-9.423 22.771 14.605-10.155 10.993Z" style="fill:#979797;stroke:none;stroke-width:3.08851838px;stroke-linecap:butt;stroke-linejoin:miter;stroke-opacity:1"/><path id="path829" d="M31.036 31.326v139.14l5.34 3.141V38.55l49.626 29.524v18.217L47.683 64.62v115.584l6.307 3.641V73.1l45.203 25.755 23.557-13.82Z" style="fill:#b1b5bd;stroke:none;stroke-width:3.08851838px;stroke-linecap:butt;stroke-linejoin:miter;stroke-opacity:1"/><path id="path858" d="M85.583 63.991 62.759 42.005l8.952-20.573 22.614-2.826 21.672 10.993-6.91 20.73Z" style="fill:#ba6561;stroke:none;stroke-width:3.08851838px;stroke-linecap:butt;stroke-linejoin:miter;stroke-opacity:1"/><path id="path862" d="m93.854 43.104-8.271 20.887-22.824-21.986 8.952-20.573 16.803 6.282Z" style="opacity:.25;fill:#000;stroke:none;stroke-width:3.08851838px;stroke-linecap:butt;stroke-linejoin:miter;stroke-opacity:1"/><path id="path860" d="m71.71 21.432 22.144 21.672L115.997 29.6 94.953 8.084Z" style="fill:#ff837d;stroke:none;stroke-width:3.08851838px;stroke-linecap:butt;stroke-linejoin:miter;stroke-opacity:1"/></svg>
